icons/modern/white-question-mark.svg

<svg width="32" height="33" viewBox="0 0 32 33" fill="none" xmlns="http://www.w3.org/2000/svg">
<circle cx="15.6881" cy="27.1965" r="2.5" fill="url(#paint0_linear_18590_1817)"/>
<circle cx="15.6881" cy="27.1965" r="2.5" fill="url(#paint1_radial_18590_1817)"/>
<circle cx="15.6881" cy="27.1965" r="2.5" fill="url(#paint2_radial_18590_1817)"/>
<g filter="url(#filter0_ii_18590_1817)">
<path fill-rule="evenodd" clip-rule="evenodd" d="M15.4127 6.87609C14.4668 7.10146 13.9632 7.5311 13.6767 7.92618C13.3572 8.36669 13.2194 8.89101 13.2194 9.33325C13.2194 10.714 12.1001 11.8332 10.7193 11.8332C9.33863 11.8332 8.21935 10.7139 8.21936 9.33322C8.21938 6.54023 9.93468 2.99349 14.3527 1.98923C14.3853 1.98181 14.4181 1.97504 14.451 1.96894C17.3386 1.4335 19.8612 2.22433 21.6317 3.9526C23.3338 5.61404 24.1413 7.94203 24.1413 10.2084C24.1413 12.4607 23.4939 14.3006 22.0239 15.8617C21.012 16.9363 19.6695 17.8043 18.1725 18.6235V20.6146C18.1725 21.9953 17.0533 23.1146 15.6725 23.1146C14.2918 23.1146 13.1725 21.9953 13.1725 20.6146V17.1146C13.1725 16.1758 13.6985 15.3162 14.5343 14.8888C16.6222 13.8211 17.7412 13.1163 18.3837 12.434C18.8668 11.9209 19.1413 11.3623 19.1413 10.2084C19.1413 9.06849 18.7301 8.10742 18.1391 7.53055C17.6228 7.02659 16.7921 6.63325 15.4127 6.87609Z" fill="url(#paint3_linear_18590_1817)"/>
</g>
<g filter="url(#filter1_f_18590_1817)">
<path d="M11.326 8.8049C11.326 6.97683 12.4637 4.60193 15.6813 3.89871C20.1506 3.10193 22.6858 6.2738 22.6858 9.68005C22.6858 13.0863 20.7681 14.4769 16.4778 16.5863V20.5923" stroke="url(#paint4_linear_18590_1817)" stroke-width="2" stroke-linecap="round" stroke-linejoin="round"/>
<path d="M11.326 8.8049C11.326 6.97683 12.4637 4.60193 15.6813 3.89871C20.1506 3.10193 22.6858 6.2738 22.6858 9.68005C22.6858 13.0863 20.7681 14.4769 16.4778 16.5863V20.5923" stroke="url(#paint5_linear_18590_1817)" stroke-width="2" stroke-linecap="round" stroke-linejoin="round"/>
</g>
<defs>
<filter id="filter0_ii_18590_1817" x="8.21936" y="1.05347" width="16.6719" height="22.8112" filterUnits="userSpaceOnUse" color-interpolation-filters="sRGB">
<feFlood flood-opacity="0" result="BackgroundImageFix"/>
<feBlend mode="normal" in="SourceGraphic" in2="BackgroundImageFix" result="shape"/>
<feColorMatrix in="SourceAlpha" type="matrix" values="0 0 0 0 0 0 0 0 0 0 0 0 0 0 0 0 0 0 127 0" result="hardAlpha"/>
<feOffset dx="0.75" dy="0.75"/>
<feGaussianBlur stdDeviation="0.75"/>
<feComposite in2="hardAlpha" operator="arithmetic" k2="-1" k3="1"/>
<feColorMatrix type="matrix" values="0 0 0 0 0.776471 0 0 0 0 0.768627 0 0 0 0 0.784314 0 0 0 1 0"/>
<feBlend mode="normal" in2="shape" result="effect1_innerShadow_18590_1817"/>
<feColorMatrix in="SourceAlpha" type="matrix" values="0 0 0 0 0 0 0 0 0 0 0 0 0 0 0 0 0 0 127 0" result="hardAlpha"/>
<feOffset dy="-0.75"/>
<feGaussianBlur stdDeviation="0.5"/>
<feComposite in2="hardAlpha" operator="arithmetic" k2="-1" k3="1"/>
<feColorMatrix type="matrix" values="0 0 0 0 0.729412 0 0 0 0 0.67451 0 0 0 0 0.835294 0 0 0 1 0"/>
<feBlend mode="normal" in2="effect1_innerShadow_18590_1817" result="effect2_innerShadow_18590_1817"/>
</filter>
<filter id="filter1_f_18590_1817" x="8.82599" y="1.2749" width="16.3598" height="21.8174" filterUnits="userSpaceOnUse" color-interpolation-filters="sRGB">
<feFlood flood-opacity="0" result="BackgroundImageFix"/>
<feBlend mode="normal" in="SourceGraphic" in2="BackgroundImageFix" result="shape"/>
<feGaussianBlur stdDeviation="0.75" result="effect1_foregroundBlur_18590_1817"/>
</filter>
<linearGradient id="paint0_linear_18590_1817" x1="15.6881" y1="25.9114" x2="15.6881" y2="29.6965" gradientUnits="userSpaceOnUse">
<stop stop-color="#ECE6F8"/>
<stop offset="1" stop-color="#C0ADE6"/>
</linearGradient>
<radialGradient id="paint1_radial_18590_1817" cx="0" cy="0" r="1" gradientUnits="userSpaceOnUse" gradientTransform="translate(16.8581 26.3759) rotate(-43.8351) scale(1.84384 1.62111)">
<stop stop-color="#FFFEFF"/>
<stop offset="1" stop-color="#E7DEFB" stop-opacity="0"/>
</radialGradient>
<radialGradient id="paint2_radial_18590_1817" cx="0" cy="0" r="1" gradientUnits="userSpaceOnUse" gradientTransform="translate(13.1881 25.2864) rotate(25.9892) scale(2.78125 7.5306)">
<stop stop-color="#D1CCDC"/>
<stop offset="1" stop-color="#D1CCDC" stop-opacity="0"/>
</radialGradient>
<linearGradient id="paint3_linear_18590_1817" x1="16.1803" y1="2.2865" x2="16.1803" y2="23.1146" gradientUnits="userSpaceOnUse">
<stop stop-color="#DAD6E3"/>
<stop offset="1" stop-color="#CCC2E3"/>
</linearGradient>
<linearGradient id="paint4_linear_18590_1817" x1="23.0433" y1="6.66486" x2="18.3246" y2="10.7221" gradientUnits="userSpaceOnUse">
<stop offset="0.103073" stop-color="#F6F4F9"/>
<stop offset="1" stop-color="#F6F4F9" stop-opacity="0"/>
</linearGradient>
<linearGradient id="paint5_linear_18590_1817" x1="19.208" y1="20.9149" x2="19.208" y2="12.6895" gradientUnits="userSpaceOnUse">
<stop stop-color="#EFE8FF"/>
<stop offset="1" stop-color="#EFE8FF" stop-opacity="0"/>
</linearGradient>
</defs>
</svg>

<svg width="32" height="33" fill="none" xmlns="http://www.w3.org/2000/svg"><circle cx="15.688" cy="27.197" r="2.5" fill="url(#a)"/><circle cx="15.688" cy="27.197" r="2.5" fill="url(#b)"/><circle cx="15.688" cy="27.197" r="2.5" fill="url(#c)"/><g filter="url(#d)"><path fill-rule="evenodd" clip-rule="evenodd" d="M15.413 6.876c-.946.225-1.45.655-1.736 1.05-.32.44-.458.965-.458 1.407a2.5 2.5 0 1 1-5 0c0-2.793 1.716-6.34 6.134-7.344l.098-.02c2.888-.536 5.41.255 7.18 1.984 1.703 1.661 2.51 3.989 2.51 6.255 0 2.253-.647 4.093-2.117 5.654-1.012 1.074-2.355 1.942-3.852 2.761v1.992a2.5 2.5 0 1 1-5 0v-3.5a2.5 2.5 0 0 1 1.362-2.226c2.088-1.068 3.207-1.773 3.85-2.455.483-.513.757-1.072.757-2.226 0-1.14-.41-2.1-1.002-2.677-.516-.504-1.347-.898-2.726-.655Z" fill="url(#e)"/></g><g filter="url(#f)" stroke-width="2" stroke-linecap="round" stroke-linejoin="round"><path d="M11.326 8.805c0-1.828 1.138-4.203 4.355-4.906 4.47-.797 7.005 2.375 7.005 5.781 0 3.406-1.918 4.797-6.208 6.906v4.006" stroke="url(#g)"/><path d="M11.326 8.805c0-1.828 1.138-4.203 4.355-4.906 4.47-.797 7.005 2.375 7.005 5.781 0 3.406-1.918 4.797-6.208 6.906v4.006" stroke="url(#h)"/></g><defs><linearGradient id="a" x1="15.688" y1="25.911" x2="15.688" y2="29.697" gradientUnits="userSpaceOnUse"><stop stop-color="#ECE6F8"/><stop offset="1" stop-color="#C0ADE6"/></linearGradient><linearGradient id="e" x1="16.18" y1="2.287" x2="16.18" y2="23.115" gradientUnits="userSpaceOnUse"><stop stop-color="#DAD6E3"/><stop offset="1" stop-color="#CCC2E3"/></linearGradient><linearGradient id="g" x1="23.043" y1="6.665" x2="18.325" y2="10.722" gradientUnits="userSpaceOnUse"><stop offset=".103" stop-color="#F6F4F9"/><stop offset="1" stop-color="#F6F4F9" stop-opacity="0"/></linearGradient><linearGradient id="h" x1="19.208" y1="20.915" x2="19.208" y2="12.69" gradientUnits="userSpaceOnUse"><stop stop-color="#EFE8FF"/><stop offset="1" stop-color="#EFE8FF" stop-opacity="0"/></linearGradient><radialGradient id="b" cx="0" cy="0" r="1" gradientUnits="userSpaceOnUse" gradientTransform="rotate(-43.835 41.206 -7.761) scale(1.84384 1.62111)"><stop stop-color="#FFFEFF"/><stop offset="1" stop-color="#E7DEFB" stop-opacity="0"/></radialGradient><radialGradient id="c" cx="0" cy="0" r="1" gradientUnits="userSpaceOnUse" gradientTransform="matrix(2.5 1.21875 -3.29992 6.76908 13.188 25.286)"><stop stop-color="#D1CCDC"/><stop offset="1" stop-color="#D1CCDC" stop-opacity="0"/></radialGradient><filter id="d" x="8.219" y="1.053" width="16.672" height="22.811" filterUnits="userSpaceOnUse" color-interpolation-filters="sRGB"><feFlood flood-opacity="0" result="BackgroundImageFix"/><feBlend in="SourceGraphic" in2="BackgroundImageFix" result="shape"/><feColorMatrix in="SourceAlpha" values="0 0 0 0 0 0 0 0 0 0 0 0 0 0 0 0 0 0 127 0" result="hardAlpha"/><feOffset dx=".75" dy=".75"/><feGaussianBlur stdDeviation=".75"/><feComposite in2="hardAlpha" operator="arithmetic" k2="-1" k3="1"/><feColorMatrix values="0 0 0 0 0.776471 0 0 0 0 0.768627 0 0 0 0 0.784314 0 0 0 1 0"/><feBlend in2="shape" result="effect1_innerShadow_18590_1817"/><feColorMatrix in="SourceAlpha" values="0 0 0 0 0 0 0 0 0 0 0 0 0 0 0 0 0 0 127 0" result="hardAlpha"/><feOffset dy="-.75"/><feGaussianBlur stdDeviation=".5"/><feComposite in2="hardAlpha" operator="arithmetic" k2="-1" k3="1"/><feColorMatrix values="0 0 0 0 0.729412 0 0 0 0 0.67451 0 0 0 0 0.835294 0 0 0 1 0"/><feBlend in2="effect1_innerShadow_18590_1817" result="effect2_innerShadow_18590_1817"/></filter><filter id="f" x="8.826" y="1.275" width="16.36" height="21.817" filterUnits="userSpaceOnUse" color-interpolation-filters="sRGB"><feFlood flood-opacity="0" result="BackgroundImageFix"/><feBlend in="SourceGraphic" in2="BackgroundImageFix" result="shape"/><feGaussianBlur stdDeviation=".75" result="effect1_foregroundBlur_18590_1817"/></filter></defs></svg>
